svgs/sharp-solid/message-quote.svg

<svg xmlns="http://www.w3.org/2000/svg" viewBox="0 0 512 512"><!--! Font Awesome Pro 6.6.0 by @fontawesome - https://fontawesome.com License - https://fontawesome.com/license (Commercial License) Copyright 2024 Fonticons, Inc. --><path d="M0 0L512 0l0 416-208 0L160 512l0-96L0 416 0 0zM240 112l-112 0 0 112 64 0 0 32-24 0-24 0 0 48 24 0 48 0 24 0 0-24 0-56 0-48 0-24 0-40zm144 0l-112 0 0 112 64 0 0 32-24 0-24 0 0 48 24 0 48 0 24 0 0-24 0-56 0-48 0-24 0-40z"/></svg>

<svg xmlns="http://www.w3.org/2000/svg" viewBox="0 0 512 512"><!--! Font Awesome Pro 6.4.0 by @fontawesome - https://fontawesome.com License - https://fontawesome.com/license (Commercial License) Copyright 2023 Fonticons, Inc. --><path d="M0 0H512V416H304L160 512V416H0V0zM240 112H128V224h64v32H168 144v48h24 48 24V280 224 176 152 112zm144 0H272V224h64v32H312 288v48h24 48 24V280 224 176 152 112z"/></svg>
